!!!COM: Gabriel Faure/
!!!CNT: Francais
!!!TXO: Francais
!!!OTL: "Puisque l'aube grandit"
!!!LYR: Verlaine
!!!OPR: La bonne chanson
!!!OPS: Op. 61
!!!ONM: No. 2
!!!ENC: Emily Thomas
!!!YOR: CD Sheet Music French Art Songs, The Ultimate Collection
!!!YOR: CD Sheet Music, LLC 2003
!!!ODT: 1894/
!!NB: Vocal melody and text encoded.
**kern	**silbe
=1	=1
*clefG2	*
*k[f#]	*
*M4/4	*
*MM[Allegro]	*
1r	.
=2	=2
{4.dd	{Puis-
8cc	-que
4b	l'au-
8a	-be
8g	gran-
=3	=3
4f#	-dit,
12b	puis-
12a	-que
12b	voi-
8cc#	-ci
8a	l'au-
[4b	-ro-
=4	=4
8b]	|
8cc#	|
8dd	|
8ee	|
4ff#	|
4f#}	-re}
=5	=5
4r	.
{8ee	{Puisqu'
8ee	a-
6dd	-pre\s
6ccn	m'a-
6dd	-voir
=6	=6
4.b	fui
8g	long-
[2a	-temps
=7	=7
8a]}	|}
8r	.
{4b	{l'es-
4.b	-poir
8g#	veut
=8	=8
4b	bien
8cc	Re-
8a	-vo-
4b	-ler
8gn	de-
8b	-vers
=9	=9
4cc#	moi
8dd	qui
8b	l'ap-
4cc	-pelle
8dd	et
8dd	l'im-
=10	=10
2ffn	-plor-
[2ee	-re
=11	=11
4ee]}	|}
4r	.
2r	.
=12	=12
{4.ee	{Puis-
8b	-que
6cc	tout
6a	ce
6cc	bon-
=13	=13
2b	-heur
4.a	veut
8f#	bien
=14	=14
2g	e^-
4.a	-tre
8a	le
=15	=15
[2b	mein,
8b]}	|}
8r	.
{4cc#	{le
=16	=16
*k[f#c#g#d#a#e#]	*
[2cc#	veux
8cc#]	|
8a#	gui-
8cc#	-de/
8dd#	par
=17	=17
4ee#	vous,
4cc#	beaux
8a#	yeux
8f##	aux
8g#	flam-
8a#	-mes
=18	=18
2cc#	dou-
4cc#}	-ces}
8r	.
{8cc#	{Par
=19	=19
4.een	toi
8dd#	con-
[2cc#	-duit.
=20	=20
8cc#]}	|}
8r	.
{4b	{o^
4.a#	main
8g#	ou\
=21	=21
6f#	trem-
6g#	|
6an	-ble-
4.ddn	-ra
8b	ma
=22	=22
[2cc#	main,
8cc#]}	|}
8r	.
{8.dd-	{Mar-
16b-	-cher
=23	=23
*k[f#]	*
2ee-	droit
4r	.
8e-	que
8fn	ce
=24	=24
4b-	soit
4b-	par
8e-	des
8e-	sen-
8fn	-tiers
8a-	de
=25	=25
2b-	mous-
[2a-	-se
=26	=26
4a-}	|}
4r	.
{4.b-	{Ou
8b-	que
=27	=27
4dd	rocs
8b-	et
8dd	cail-
4.cc	-loux
8cc	en-
=28	=28
4.dd-	-com-
8a-	-brent
4fn	le
4d-	che-
=29	=29
[1c	-min;
=30	=30
4c]}	|}
4r	.
4r	.
{4ee-	{Et
=31	=31
2dd	com-
4b	-me
8a	pour
8g	ber-
=32	=32
4f#	-cer
8b	les
8a	len-
4b	-teurs
8cc#	de
8a	la
=33	=33
4b	rou-
4f#}	-te,}
8r	.
{8b	{Je
8cc#	chan-
8dd	-te-
=34	=34
4.ee	-rai
8e	des
4e	airs
8f#	in-
8a#	-ge/-
=35	=35
1g#}	-nus,}
=36	=36
2r	.
{4.b-	{Je
8b-	me
=37	=37
2cc	dis
6cc	qu'el
6b-	-le
6cc	m'e/-
=38	=38
4.dd	-cou-
8b-	-te-
[2a	-ra
=39	=39
4a]	|
4a	sans
4bn	de/-
4g	-plai-
=40	=40
[2dd	-sir
4dd]}	|}
8r	.
{8b	{sans
=41	=41
2a	dou-
[2g#	-te,
=42	=42
4g#]}	|}
4r	.
{4.b	{Et
8b	vrai-
=43	=43
2cc	-ment
4cc	je
8dd	ne
8ee	veux
=44	=44
2.ffn	pas
[4cc	d'au-
=45	=45
1cc_	|
=46	=46
4cc]	|
4b	-tre
4.a	Pa-
8g	-ra-
=47	=47
[1g	-dis.
=48	=48
2g_	|
4g]}	|}
4r	.
==	==
*-	*-
